X: 912
T: Southern Flavor
C:Bill Monroe
B: jims roots
M:4/4
L:1/8
Q: 1/4=100
K:Em
V:1 
%N:TablEdited by Mike Stangeland
B2 d2 | "Em"eeee eeeg | edBA BBBA | GDEE EEEE | [E2B,2] [EB,][EB,] [EB,][EB,] [E2B,2] |
eeee eeeg | edBA G2 A2 | "B"ABBB BBBd | B2 Be B2 d2 ||
"Em"eeee eeeg | edBA BBBA | GDEE EEEE | [E2B,2] [EB,][EB,] [EB,][EB,] [E2B,2] |
"G"[BF][BG][BG][BG] [BG][BG] [B2G2] | "D"[B2F2] [BF][BF] FAFD | "Em"[E3B,3][EB,] [EB,][EB,] [E2B,2] | [E2B,2] B,A, G,4 ||
"D"D[DD][DD][DD] [D2D2] DE | FEDF EDEF | "Em"[B^G][BG][BG][BG] GFE^C | [E2B,2] [EB,][EB,] [E2B,2]^C2 |
"D"D[DD][DD][DD] [D2D2] DE | FEDF EDEF | "B"^G2 B2 BBBc | B2 Be B2 d2 ||
"Em"eeee eeeg | edBA BBBA | GDEE EEEE | [E2B,2] [EB,][EB,] [EB,][EB,] [E2B,2] |
"G"[BF][BG][BG][BG] [BG][BG] [B2G2] | "B"[B2F2] [BF][BF] FAFD | "Em"[E3B,3][EB,] [EB,][EB,] [E2B,2] | [E8B,8]|]
% abcbook-tune_id 6298c28786de862261a556f7


% abcbook-boost 0
% abcbook-tablature 
% abcbook-transpose 
% abcbook-lastupdated 1654178440683
% abcbook-soundfonts 
% abcbook-repeats 1


